X: 1
T: Kara Mustafa   [Em]
O: Macedonia
R: lesnoto
Z: 2014 John Chambers <jc:trillian.mit.edu>
B: The Pinewoods International Collection
M: 7/8
%Q: 2/8 1/8 2/8 2/8
L: 1/8
K: Em
"A"[|\
"Em"GAF ~G2FE | "Am"~A2E EDEF | "Em"GAF "Am"~G2"Bm"FE | "Em"~B2E "Am"AGAB |\
"Em"GAF ~G2FE | "Am"~A2E "D7"EDEF | "G"GAF "Am"~G2"Bm"FE | "Em"~E2B, E2z2 |]
"B"[| "Em"AB2 B2(~BA) | (~B2A) A2~AG | "Am"(BA2) G2(~GF) | "E7"E3 {FED}"D"D2-D2- | D3- D2z2 |]
"C"[|\
"Em"(FG1) (B2{cB}A2) | ({AGF}G3- G2{AGF}G2) | "Am"AG2 "Bm"(~FE)E2 | "Em"(E2- "A7"E2{FE}"A7"D2) |\
"G"(FG2) (B2{cB}A2) | ({BAG}"Am"A3- "A7"A2- "D"A{GA}B) | "Am"AG2 "Bm"(~FE)E2 | "Em"E3- E2!fine!z2 |]
